Simply-Orange-Circles/scalable/apps/kdiff3.svg

<svg xmlns="http://www.w3.org/2000/svg" width="48" height="48" viewBox="0 0 12.7 12.7"><path d="M6.34.07A6.29 6.29 0 0 0 .05 6.36a6.29 6.29 0 0 0 6.3 6.29 6.29 6.29 0 0 0 6.28-6.3A6.29 6.29 0 0 0 6.34.08zm-.01.94a5.4 5.4 0 0 1 3.8 1.56l-.81.8a.42.42 0 0 1 .18.35v.2a.42.42 0 0 1-.41.42h-.74l-.7.71h1.44a.42.42 0 0 1 .41.42v.2a.42.42 0 0 1-.41.42H6.6l-.7.71h3.19a.42.42 0 0 1 .41.42v.2a.42.42 0 0 1-.41.42H4.85L5.9 6.8H3.62a.42.42 0 0 0-.42.42v.2c0 .23.19.42.42.42h1.23l-.7.71h4.94a.42.42 0 0 1 .41.42v.2a.42.42 0 0 1-.41.42H3.62c-.14 0-.25-.08-.33-.2l-.8.82a5.4 5.4 0 0 1-1.57-3.8 5.4 5.4 0 0 1 5.4-5.4zM3.29 9.4l.85-.85h-.52a.42.42 0 0 0-.42.42v.2c0 .09.05.16.1.23zM6.6 6.1l1.04-1.05H3.62a.42.42 0 0 0-.42.42v.2c0 .24.19.42.42.42H6.6zm1.75-1.76l.97-.96a.42.42 0 0 0-.23-.08H3.62a.42.42 0 0 0-.42.42v.2c0 .24.19.42.42.42h4.73z" fill="#ff7f2a"/></svg>

<?xml version="1.0" encoding="UTF-8" standalone="no"?>
<svg
   xmlns:dc="http://purl.org/dc/elements/1.1/"
   xmlns:cc="http://creativecommons.org/ns#"
   xmlns:rdf="http://www.w3.org/1999/02/22-rdf-syntax-ns#"
   xmlns:svg="http://www.w3.org/2000/svg"
   xmlns="http://www.w3.org/2000/svg"
   xmlns:sodipodi="http://sodipodi.sourceforge.net/DTD/sodipodi-0.dtd"
   xmlns:inkscape="http://www.inkscape.org/namespaces/inkscape"
   width="48"
   height="48"
   viewBox="0 0 12.7 12.7"
   version="1.1"
   id="svg4"
   sodipodi:docname="kdiff3.svg"
   inkscape:version="0.92.4 (5da689c313, 2019-01-14)">
  <metadata
     id="metadata10">
    <rdf:RDF>
      <cc:Work
         rdf:about="">
        <dc:format>image/svg+xml</dc:format>
        <dc:type
           rdf:resource="http://purl.org/dc/dcmitype/StillImage" />
        <dc:title></dc:title>
      </cc:Work>
    </rdf:RDF>
  </metadata>
  <defs
     id="defs8" />
  <sodipodi:namedview
     pagecolor="#ffffff"
     bordercolor="#666666"
     borderopacity="1"
     objecttolerance="10"
     gridtolerance="10"
     guidetolerance="10"
     inkscape:pageopacity="0"
     inkscape:pageshadow="2"
     inkscape:window-width="1087"
     inkscape:window-height="480"
     id="namedview6"
     showgrid="false"
     inkscape:zoom="4.9166667"
     inkscape:cx="2.1355932"
     inkscape:cy="24"
     inkscape:window-x="0"
     inkscape:window-y="25"
     inkscape:window-maximized="0"
     inkscape:current-layer="svg4" />
  <path
     d="M 6.34,0.07 A 6.29,6.29 0 0 0 0.05,6.36 6.29,6.29 0 0 0 6.35,12.65 6.29,6.29 0 0 0 12.63,6.35 6.29,6.29 0 0 0 6.34,0.08 Z M 6.33,1.01 a 5.4,5.4 0 0 1 3.8,1.56 L 9.32,3.37 A 0.42,0.42 0 0 1 9.5,3.72 v 0.2 A 0.42,0.42 0 0 1 9.09,4.34 H 8.35 L 7.65,5.05 H 9.09 A 0.42,0.42 0 0 1 9.5,5.47 v 0.2 A 0.42,0.42 0 0 1 9.09,6.09 H 6.6 L 5.9,6.8 H 9.09 A 0.42,0.42 0 0 1 9.5,7.22 v 0.2 A 0.42,0.42 0 0 1 9.09,7.84 H 4.85 L 5.9,6.8 H 3.62 A 0.42,0.42 0 0 0 3.2,7.22 v 0.2 c 0,0.23 0.19,0.42 0.42,0.42 H 4.85 L 4.15,8.55 H 9.09 A 0.42,0.42 0 0 1 9.5,8.97 v 0.2 A 0.42,0.42 0 0 1 9.09,9.59 H 3.62 C 3.48,9.59 3.37,9.51 3.29,9.39 l -0.8,0.82 A 5.4,5.4 0 0 1 0.92,6.41 5.4,5.4 0 0 1 6.32,1.01 Z M 3.29,9.4 4.14,8.55 H 3.62 A 0.42,0.42 0 0 0 3.2,8.97 v 0.2 c 0,0.09 0.05,0.16 0.1,0.23 z M 6.6,6.1 7.64,5.05 H 3.62 A 0.42,0.42 0 0 0 3.2,5.47 v 0.2 c 0,0.24 0.19,0.42 0.42,0.42 H 6.6 Z M 8.35,4.34 9.32,3.38 A 0.42,0.42 0 0 0 9.09,3.3 H 3.62 A 0.42,0.42 0 0 0 3.2,3.72 v 0.2 c 0,0.24 0.19,0.42 0.42,0.42 z"
     id="path2"
     inkscape:connector-curvature="0"
     style="fill:#ff7f2a" />
</svg>
